X: 1620
T: The Goodnatured Man
M:2/4
L:1/16
R:Hornpipe
B:O'Neill's 1620
Z:Transcribed by Michael D. Long, 10/10/98
K:G
d2|g2bg d2gd|BcdB G2AB|cded cBAG|FGEF D2d2|\
g2bg d2gd|BcdB G2AB|cedc BAGF|A2G2 G2:|
|:(Bc)|dBdB gdgd|ecec aeae|fdfd gdgd|fgaf defd|\
g2bg d2gd|BcdB G2AB|cedc BAGF|A2G2 G2:|


